X:1
T:The Fields Are White
T:The Fields Are White
T:James Holmes Rosecrans, 1902
T:Matthias Sheeleigh (1821-1900)
T:Public Domain Courtesy of the Cyber Hymnal™
T:Public Domain Courtesy of the Cyber Hymnal™
C:James Holmes Rosecrans, 1902
Z:Public Domain
Z:Courtesy of the Cyber Hymnal™
%%score ( 1 2 ) ( 3 4 )
L:1/8
Q:1/4=93
M:3/4
K:D
V:1 treble 
V:2 treble 
V:3 bass 
V:4 bass 
V:1
 DF>D | A3 [GB] [GA]>[EG] | [EG]4 [EG]2 | [EG]3 [CE] [CB]>[CA] | [DF]3 D F>A | %5
w: 1.~Lift up your|eyes up- on the|land, For|white the fields ap-|pear; The har- vest|
w: 2.~Ye men and|maid- ens of the|Lord, Be|not the call de-|layed; Rise to the|
w: 3.~Wait not un-|til the wane of|day; Your|loins now quick- ly|gird; E’en ere the|
w: 4.~How soon will|pass the morn- ing|prime, Think|not the hours will|stay; Soon will it|
 [Fd]3 [Fc] [Ge]>[Gd] | [GB]4 [^Ed]2 | [FA]3 [DF] [DF]>[CE] | D3 ||[M:4/4]"^Refrain" DD>D | %10
w: of the world’s at|hand, The|reap- ing time is|here.||
w: work with full ac-|cord, Thrust|in the sick- le|blade.|Stay not to|
w: dew has dried a-|way, An-|swer the Mas- ter’s|word.||
w: be your ev- en-|time, How|soon will close your|day.||
 [GB]4- [GB]>[Bd] [Ac]>[GB] | [FA]6 [FA]2 | [EA]3 [EG] [CE]2 [GB]2 | A4- [FA]D D>D | %14
w: ||||
w: wait * re- peat- ed|call; The|King’s work need- eth|haste; Leave not the grain|
w: ||||
w: ||||
 [GB]4- [GB]>[Bd] [Ac]>[GB] | [FA]6 [DF]2 | [CA]3 [CE] [EG]2 (FE) | D4- D |] %18
w: ||||
w: un- * reaped to fall,|The price-|less crop to waste. *||
w: ||||
w: ||||
V:2
 DF>D | A3 x3 | x6 | x6 | x3 D F>A | x6 | x6 | x6 | D3 ||[M:4/4] DD>D | x8 | x8 | x8 | %13
 (F2 D3/2 F/ D)D>D x | x8 | x8 | x6 C2 | D4- D |] %18
V:3
 D,F,>D, | A,3 [D,D] [E,C]>[E,A,] | [E,A,]4 [A,,A,]2 | [A,,A,]3 [A,,A,] [A,,A,]>[A,,A,] | %4
w: ~ ~ ~|~ ~ ~ ~|~ ~|~ ~ ~ ~|
 [D,A,]3 D, F,>A, | [D,A,]3 [D,A,] [G,B,]>[G,B,] | [G,D]4 [^G,B,]2 | [A,D]3 A, [A,,A,]>[A,,G,] | %8
w: ~ ~ ~ ~|~ ~ ~ ~|~ ~|~ ~ ~ ~|
 [D,F,]3 || z3 | z [G,D] [G,D]>[G,D] [G,D]2 z2 | z [D,D] [F,D]>[A,D] [D,D]2 [D,D]2 | %12
w: ~||Stay not to wait|re- peat- ed call; ~|
 [A,,C]3 [A,,A,] [A,,A,]2 [A,,C]2 | [D,D]2 [F,D]>[A,D] [D,D]2 z2 | z [G,D] [G,D]>[G,D] [G,D]2 z2 | %15
w: ~ ~ ~ ~|~ need- eth haste;|Leave not the grain|
 z [D,D] [D,D]>[D,D] [D,D]2 [D,A,]2 | [A,,A,]3 [A,,A,] [A,,A,]2 (A,G,) | [D,F,]4- [D,F,] |] %18
w: un- reaped to fall, *|||
V:4
 D,F,>D, | A,3 x3 | x6 | x6 | x3 D, F,>A, | x6 | x6 | x3 A, x2 | x3 || x3 | x8 | x8 | x8 | x8 | %14
 x8 | x8 | x6 A,,2 | x5 |] %18

